packages/katcn/src/icons/svg/chat.svg

<svg width="24" height="24" viewBox="0 0 24 24" fill="none" xmlns="http://www.w3.org/2000/svg">
<path fill-rule="evenodd" clip-rule="evenodd" d="M1 5.78146C1 3.646 2.62571 2 4.76316 2H14.2368C16.3973 2 18 3.76883 18 5.78146V11.7417C18 13.9004 16.2523 15.5232 14.2368 15.5232H8.01974C7.37166 15.5232 6.78381 15.7363 6.23901 16.127L2.59201 18.8059C2.28819 19.0291 1.88468 19.0625 1.54834 18.8922C1.212 18.7219 1 18.377 1 18V5.78146ZM3 16.0246L5.06751 14.5059C5.90319 13.9051 6.89305 13.5232 8.01974 13.5232H14.2368C15.182 13.5232 16 12.7619 16 11.7417V5.78146C16 4.81395 15.2342 4 14.2368 4H4.76316C3.74271 4 3 4.7381 3 5.78146V16.0246Z" fill="black"/>
<path fill-rule="evenodd" clip-rule="evenodd" d="M19.5305 8.62088C19.7399 8.10983 20.3239 7.86526 20.835 8.07463C22.095 8.59086 23 9.78414 23 11.1825V22C23 22.3668 22.7992 22.7041 22.4768 22.879C22.1543 23.0539 21.7621 23.0382 21.4546 22.8382L17.9546 20.5608C17.9328 20.5466 17.9115 20.5315 17.8908 20.5156C17.5068 20.2207 16.9266 20.0584 16.2353 20.0584H10.3676C8.98097 20.0584 7.68904 19.2926 7.09924 18.0693C6.85937 17.5719 7.06822 16.9741 7.5657 16.7343C8.06317 16.4944 8.66091 16.7032 8.90077 17.2007C9.13449 17.6855 9.6955 18.0584 10.3676 18.0584H16.2353C17.1785 18.0584 18.2299 18.27 19.0755 18.904L21 20.1563V11.1825C21 10.683 20.6697 10.1682 20.0768 9.92534C19.5657 9.71597 19.3212 9.13194 19.5305 8.62088Z" fill="black"/>
</svg>

<svg xmlns="http://www.w3.org/2000/svg" fill="none" viewBox="0 0 24 24"><path fill="#000" fill-rule="evenodd" d="M1 5.781C1 3.646 2.626 2 4.763 2h9.474C16.397 2 18 3.769 18 5.781v5.96a3.767 3.767 0 0 1-3.763 3.782H8.02c-.648 0-1.236.213-1.781.604l-3.647 2.679A1 1 0 0 1 1 18zm2 10.244 2.068-1.52c.835-.6 1.825-.982 2.952-.982h6.217c.945 0 1.763-.761 1.763-1.781v-5.96C16 4.813 15.234 4 14.237 4H4.763C3.743 4 3 4.738 3 5.781z" clip-rule="evenodd"/><path fill="#000" fill-rule="evenodd" d="M19.53 8.62a1 1 0 0 1 1.305-.545C22.095 8.59 23 9.785 23 11.183V22a1 1 0 0 1-1.545.838l-3.5-2.277-.064-.045c-.384-.295-.964-.458-1.656-.458h-5.867c-1.387 0-2.679-.765-3.269-1.989a1 1 0 1 1 1.802-.868c.233.485.794.857 1.467.857h5.867c.944 0 1.995.212 2.84.846L21 20.156v-8.973c0-.5-.33-1.015-.923-1.258a1 1 0 0 1-.547-1.304" clip-rule="evenodd"/></svg>
